!!!COM: Johanna Kinkel
!!!CNT: Deutsch
!!!TXO: Deutsch
!!!OTL: Gegenwart
!!!LYR: Goethe
!!!OPR: Sechs Lieder
!!!OPS: Op. 16
!!!ONM: No. 4
!!!ENC: Ben Fuhrman
!!!YOR: Johanna Kinkel: Lieder, volume 1 Poetry by Geibel and Goethe
!!!YOR: Bryn Mawr, Fildegard Publishing CO, 2000
!!!ODT: 1841
!!NB: Only vocal melody encoded.
!!NB: First instance of melodic material only encoded.
!!created: 2/24/10 1:40PM
!!proofed and posted: 2/24/10 1:40PM
**kern	**silbe
*clef G2	*
*k[f#c#g#]	*
*M6/8	*
*MM[Con fuoco]	*
=1	=1
{8cc#	{Al-
8cc#	|
8b	-les
8b	ku2n-
8a	-det
8gn	dich
=2	=2
4.f#}	an!}
4r	.
{8f#	{Er-
=3	=3
8a#	-schei-
8a#	-net
8b	die
8cc#	herr-
8a#	-li-
8f#	-che
=4	=4
(4dd#	Son-
8cc#)	|
4b}	-ne,}
8r	.
=5	=5
{8b	{folgst
8f#	du
8g#	so
8a	hoff'
8f#	ich
8b	es
=6	=6
4.g#}	bald.}
4r	.
8r	.
=7	=7
{8.b	{Trittst
16b	du
8b	im
8dd	Gar-
8b	-ten
8g#	her-
=8	=8
(4.fn	-vor
4e)}	|}
{8e	{so
=9	=9
8.a	bist
16b	du
8ccn	die
8.dd	Ro-
16ccn	-se
8b	der
=10	=10
(4ccn	Ro-
8b)	|
4a}	-sen,}
8r	.
=11	=11
{8.a	{Li-
16b	-lie
8cc#	der
8.ee	Li-
16dd	-lien
8b	zu-
=12	=12
4.a}	-gleich.}
4r	.
8r	.
==	==
*-	*-
